src/assets/icons/expand.svg

<svg width="16" height="16" viewBox="0 0 16 16" fill="none" xmlns="http://www.w3.org/2000/svg">
<g clip-path="url(#clip0_8874_15308)">
<path fill-rule="evenodd" clip-rule="evenodd" d="M8.97803 0.0273722C8.62382 0.104324 8.33218 0.418204 8.27324 0.785844C8.21046 1.1777 8.41671 1.56448 8.78611 1.74754L8.94289 1.82522L10.907 1.83014L12.8712 1.83506L10.6398 4.0686C8.53421 6.17635 8.4053 6.30908 8.35086 6.42524C8.18483 6.77954 8.25712 7.18858 8.53485 7.46631C8.81158 7.74304 9.22197 7.8145 9.57766 7.6479C9.69014 7.59522 9.84297 7.4467 11.9315 5.36025L14.165 3.12894L14.17 5.09306L14.1749 7.0572L14.2526 7.21399C14.4356 7.58339 14.8224 7.78964 15.2143 7.72685C15.5864 7.66718 15.8968 7.3756 15.9735 7.0135C15.9958 6.90851 15.9999 6.4202 16.0002 3.85817C16.0004 1.71502 15.9946 0.798577 15.9802 0.729827C15.909 0.388352 15.6117 0.0910766 15.2703 0.0198678C15.1143 -0.0126633 9.12946 -0.00552587 8.97803 0.0273722ZM0.721411 8.28399C0.38711 8.35661 0.099541 8.64741 0.0279653 8.98518C0.00572746 9.09017 0.00159917 9.57848 0.00132395 12.1405C0.00110377 14.2837 0.00695681 15.2001 0.0212866 15.2689C0.0924954 15.6103 0.38977 15.9076 0.731246 15.9788C0.799996 15.9931 1.71644 15.999 3.85959 15.9988C6.42162 15.9985 6.90993 15.9944 7.01492 15.9721C7.48208 15.8731 7.80522 15.4022 7.72778 14.9332C7.67893 14.6375 7.49149 14.388 7.21541 14.2511L7.05862 14.1735L5.09448 14.1685L3.13036 14.1636L5.36167 11.9301C7.4578 9.83185 7.59644 9.68916 7.65 9.57483C8.01463 8.79654 7.20267 7.98598 6.42385 8.35078C6.31138 8.40346 6.15854 8.55198 4.07002 10.6384L1.83648 12.8697L1.83156 10.9056L1.82664 8.94147L1.74896 8.78469C1.61742 8.51927 1.36893 8.32632 1.09393 8.2761C0.955771 8.25085 0.865058 8.25278 0.721411 8.28399Z" fill="currentColor"/>
</g>
<defs>
<clipPath id="clip0_8874_15308">
<rect width="16" height="16" fill="white" transform="translate(0 -0.000732422)"/>
</clipPath>
</defs>
</svg>

<svg xmlns="http://www.w3.org/2000/svg" width="16" height="16" fill="none">
  <g clip-path="url(#a)">
    <path fill="currentColor" fill-rule="evenodd" d="M8.978.027a.94.94 0 0 0-.705.759.915.915 0 0 0 .513.962l.157.077 1.964.005 1.964.005L10.64 4.07C8.534 6.177 8.405 6.31 8.35 6.426a.912.912 0 0 0 .185 1.041.914.914 0 0 0 1.043.182c.112-.053.265-.201 2.354-2.288l2.233-2.231.005 1.964.005 1.964.078.157c.183.37.57.576.961.513a.935.935 0 0 0 .76-.714c.022-.104.026-.593.026-3.155 0-2.143-.005-3.06-.02-3.128a.95.95 0 0 0-.71-.71c-.156-.033-6.14-.026-6.292.007ZM.721 8.284a.939.939 0 0 0-.693.701c-.022.105-.026.593-.027 3.155 0 2.144.006 3.06.02 3.129a.95.95 0 0 0 .71.71c.069.014.985.02 3.129.02 2.562 0 3.05-.005 3.155-.027a.927.927 0 0 0 .713-1.039.928.928 0 0 0-.513-.682l-.156-.077-1.965-.005-1.964-.005 2.232-2.234C7.458 9.832 7.596 9.69 7.65 9.575c.365-.778-.447-1.589-1.226-1.224-.113.052-.265.201-2.354 2.287L1.836 12.87l-.004-1.964-.005-1.965-.078-.156a.937.937 0 0 0-.655-.509.832.832 0 0 0-.373.008Z" clip-rule="evenodd"/>
  </g>
  <defs>
    <clipPath id="a">
      <path fill="#fff" d="M0 0h16v16H0z"/>
    </clipPath>
  </defs>
</svg>
